!!!!SEGMENT: pl-kozmzk--mzk-m-159--005_walczynski-franciszek--praeludia-organi-op-5-moderato.krn
!!!cenid: 18xx:2748
!!!COM: Walczyński, Franciszek
!!!COM-rismid: pe30021989
!!!CDT: ~1852-1937
!!!CNT: Polish
!!!GTL: Praeludia organi op. 5
!!!OTL: 5. Moderato
!!!PDT: 1894
!!!AGN: Secular; Prelude
!!!SMS-siglum: PL-KOZmzk
!!!SMS-shelfmark: mzk/m/159
!!!SMS-shelfwork: 005 G
!!!SMS-variant:
!!!SMS-altvar:
!!!NIFC-rismid: 1001116616
!!!URL-scan: https://repozytorium.nifc.pl/islandora/object/pl-kozmzk%3A2265/datastream/PDF/view
!!!ONB-nifc: UWAGA: numeracja plików zgodna z numeracją źrodłową
!!!OMD:5. Moderato
**kern	**kern	**dynam
*part2	*part1	*part1
*staff2	*staff1	*
*Iempty	*Iempty	*
*I"	*I"	*
*clefF4	*clefG2	*
*k[f#c#]	*k[f#c#]	*
*D:	*D:	*
*M3/4	*M3/4	*
=1	=1	=1
*^	*^	*
!	!	!	!	!LO:DY:b=2
2.re	(4D\	2.rg	2.r	p
.	4F#\	.	.	.
.	4A\	.	.	.
=2	=2	=2	=2	=2
2.re	4.B\	2.rg	2.r	.
.	8A\L	.	.	.
.	8G\	.	.	.
.	8F#\J)	.	.	.
=3	=3	=3	=3	=3
2.re	(8G\L	2.rg	2.r	.
.	8E\J	.	.	.
.	4.A\	.	.	.
.	8G\	.	.	.
=4	=4	=4	=4	=4
!	!	!	!	!
2.re	8F#\L	2.rg	2.r	p
.	8G\	.	.	.
.	8F#\	.	.	.
.	8E\	.	.	.
.	8F#\	.	.	.
.	8G#X\J)	.	.	.
=5	=5	=5	=5	=5
(4A/	2A\	2.rg	2.r	.
4c#/	.	.	.	.
4e/)	4C#\	.	.	.
=6	=6	=6	=6	=6
(4.f#/	(8D\L	2.rg	2.r	.
.	8AA#X\	.	.	.
.	8BB\	.	.	.
8e/L	8C#\	.	.	.
8d/	8BB\	.	.	.
8c#/J)	8AAn\J)	.	.	.
=7	=7	=7	=7	=7
(8d/L	(8GG#X\L	2.rg	2.r	.
8B/J	8FF#\	.	.	.
4.e/	8GG#\	.	.	.
.	8EE\	.	.	.
.	8FF#\	.	.	.
8d/	8GG#\J	.	.	.
=8	=8	=8	=8	=8
8c#/L	4.AA\	2.rg	2.r	.
8d/	.	.	.	.
8c#/	.	.	.	.
8B/	8BB\	.	.	.
8A/	4C#\)	.	.	.
8Gn/J)	.	.	.	.
!!LO:LB:g=original
=9	=9	=9	=9	=9
(4F#/	(2.D\	2.rff	(4d\	p
4A/	.	.	4f#\	.
4F#/	.	.	4a\	.
=10	=10	=10	=10	=10
8D/L	8BB\L	2.rff	4.b\	.
8E/J	8C#\J	.	.	.
4F#/	4D\	.	.	.
.	.	.	8a\L	.
4B/)	4D#X\)	.	8g\	.
.	.	.	8f#\J)	.
=11	=11	=11	=11	=11
8G/L	(8E\L	2.rff	(8g\L	.
16A/L	16F#\L	.	8e\J	.
16B/JJ	16G\JJ	.	.	.
8c#/L	8E\L	.	4.a\	.
8B#X/	8D#X\	.	.	.
8c#/	8E\	.	.	.
8A/J	8C#\J	.	8g\	.
=12	=12	=12	=12	=12
8d/L	2.Dn\	2.rff	8f#\L	.
8B/	.	.	8g\	.
8A/	.	.	8f#\	.
8G/	.	.	8e\	.
8A/	.	.	8f#\	.
8B/J	.	.	8g#X\J	.
=13	=13	=13	=13	=13
!	!	!	!	!LO:DY:a
(4A/	4C#\)	(4a/	[2.a\)	f
4e/	4r	4cc#/	.	.
4c#/	4r	4ee/	.	.
=14	=14	=14	=14	=14
8d/L	2.r	4.ff#/	2.a\]	.
8A/	.	.	.	.
8B/	.	.	.	.
8c#/	.	8ee/L	.	.
8f#/	.	8dd/	.	.
8e/J)	.	8cc#/J)	.	.
=15	=15	=15	=15	=15
(8B/L	2.r	(8dd/L	(8f#\L	.
16e/L	.	8b/J	8g#X\J	.
16d/JJ	.	.	.	.
4c#/	.	4.ee/	8a\L	.
.	.	.	8e\	.
4B/)	.	.	8f#\	.
.	.	8dd/)	8g#\J)	.
!!LO:LB:g=original
=16	=16	=16	=16	=16
[2.A/	4r	(8cc#/L	8a\L	.
.	.	8dd/	8b\	.
.	8r	8cc#/	8a\	.
!LO:TX:b:i:t=Ped.	!	!LO:TX:b:i:t=rit.	!	!LO:DY:b=2
.	(8AA\L	8b/	8gn\	p
.	8BB\	8a/	8f#\	.
.	8C#\J	8g/J	8e\J	.
=17	=17	=17	=17	=17
!	!	!LO:TX:a:i:t=a tempo	!	!
4A/]	8D\L	4f#/)	(2.d\	p
*	*	*	*	*
.	8Cn\J	.	.	.
!	!	!	!	!LO:HP:a
(4G/	4BB\	(4g/	.	<
4A/	4AA\	4f#/	.	.
=18	=18	=18	=18	=18
8B/L	4GG\	4e/	4d\	.
8B-XJ/	.	.	.	.
8A/L	2AA\)	2a/)	2c#\)	[
8E/	.	.	.	.
8F#/	.	.	.	.
8G/J)	.	.	.	.
=19	=19	=19	=19	=19
!	!	!LO:TX:t=P:problem:pf się nie wyświetla	!	!LO:DY:a
(4F#/	(2D\	(4d/	(2.d\	pf
4A/	.	4f#/	.	.
4F#/	4Cn\	4a/	.	.
=20	=20	=20	=20	=20
8F#/L	2.BB\)	4.b/	2.d#X\)	.
8E#X/	.	.	.	.
8F#/	.	.	.	.
8cn/	.	8a/L	.	.
8B/	.	8g/	.	.
8A/J)	.	8f#/J)	.	.
=21	=21	=21	=21	=21
8E/L	(8E\L	(8g/L	(8e\L	.
[8A/J	16A\L	8e/J	8c#\J	.
.	16G\JJ	.	.	.
(2A/_	8F#\L	4.a^/	4.d\	.
.	8E#X\	.	.	.
.	8F#\	.	.	.
.	8En\J	8g/	8c#\	.
=22	=22	=22	=22	=22
!	!	!	!	!LO:DY:a
4A/]	8D\L	4f#/	2d\	pp
.	8FF#\J	.	.	.
4B/	4GG\	2e/	.	.
8A/L	4AA\	.	4c#\	.
[8G/J	.	.	.	.
=23	=23	=23	=23	=23
4G/]	2.D;\)	2.d;/)	2.A\)	.
2F#/)	.	.	.	.
*v	*v	*	*	*
*	*v	*v	*
==	==	==
*-	*-	*-
!!!system-decoration: [(s1,s2)]
!!!EED: Andrzej Borzym
!!!EST: 2021-08-08
!!!ENC: Krzysztof Stępień
!!!END: 2021-07-26
